images/5522.svg

<?xml version="1.0" encoding="UTF-8"?>
<svg xmlns="http://www.w3.org/2000/svg" xmlns:xlink="http://www.w3.org/1999/xlink" width="300pt" height="300pt" viewBox="0 0 300 300" version="1.1">
<defs>
<g>
<symbol overflow="visible" id="glyph0-0">
<path style="stroke:none;" d="M 0.59375 2.125 L 0.59375 -8.46875 L 6.59375 -8.46875 L 6.59375 2.125 Z M 1.265625 1.453125 L 5.9375 1.453125 L 5.9375 -7.78125 L 1.265625 -7.78125 Z M 1.265625 1.453125 "/>
</symbol>
<symbol overflow="visible" id="glyph0-1">
<path style="stroke:none;" d="M 1.171875 -8.75 L 2.765625 -8.75 L 6.65625 -1.4375 L 6.65625 -8.75 L 7.796875 -8.75 L 7.796875 0 L 6.203125 0 L 2.328125 -7.3125 L 2.328125 0 L 1.171875 0 Z M 1.171875 -8.75 "/>
</symbol>
<symbol overflow="visible" id="glyph0-2">
<path style="stroke:none;" d="M 1.171875 -8.75 L 2.359375 -8.75 L 2.359375 -5.15625 L 6.65625 -5.15625 L 6.65625 -8.75 L 7.84375 -8.75 L 7.84375 0 L 6.65625 0 L 6.65625 -4.171875 L 2.359375 -4.171875 L 2.359375 0 L 1.171875 0 Z M 1.171875 -8.75 "/>
</symbol>
<symbol overflow="visible" id="glyph0-3">
<path style="stroke:none;" d="M 4.734375 -7.953125 C 3.867188 -7.953125 3.179688 -7.628906 2.671875 -6.984375 C 2.171875 -6.347656 1.921875 -5.472656 1.921875 -4.359375 C 1.921875 -3.265625 2.171875 -2.394531 2.671875 -1.75 C 3.179688 -1.113281 3.867188 -0.796875 4.734375 -0.796875 C 5.585938 -0.796875 6.265625 -1.113281 6.765625 -1.75 C 7.273438 -2.394531 7.53125 -3.265625 7.53125 -4.359375 C 7.53125 -5.472656 7.273438 -6.347656 6.765625 -6.984375 C 6.265625 -7.628906 5.585938 -7.953125 4.734375 -7.953125 Z M 4.734375 -8.90625 C 5.953125 -8.90625 6.925781 -8.492188 7.65625 -7.671875 C 8.394531 -6.847656 8.765625 -5.742188 8.765625 -4.359375 C 8.765625 -2.984375 8.394531 -1.882812 7.65625 -1.0625 C 6.925781 -0.238281 5.953125 0.171875 4.734375 0.171875 C 3.503906 0.171875 2.519531 -0.238281 1.78125 -1.0625 C 1.039062 -1.882812 0.671875 -2.984375 0.671875 -4.359375 C 0.671875 -5.742188 1.039062 -6.847656 1.78125 -7.671875 C 2.519531 -8.492188 3.503906 -8.90625 4.734375 -8.90625 Z M 4.734375 -8.90625 "/>
</symbol>
</g>
</defs>
<g id="surface50981">
<rect x="0" y="0" width="300" height="300" style="fill:rgb(100%,100%,100%);fill-opacity:1;stroke:none;"/>
<path style="fill:none;stroke-width:1.2;stroke-linecap:butt;stroke-linejoin:miter;stroke:rgb(0%,0%,0%);stroke-opacity:1;stroke-miterlimit:10;" d="M 233.507812 241.773438 L 208.203125 225.792969 "/>
<path style="fill:none;stroke-width:1.2;stroke-linecap:butt;stroke-linejoin:miter;stroke:rgb(0%,0%,0%);stroke-opacity:1;stroke-miterlimit:10;" d="M 208.203125 225.792969 L 209.390625 195.886719 "/>
<path style="fill:none;stroke-width:1.2;stroke-linecap:butt;stroke-linejoin:miter;stroke:rgb(0%,0%,0%);stroke-opacity:1;stroke-miterlimit:10;" d="M 209.390625 195.886719 L 184.082031 179.90625 "/>
<path style="fill:none;stroke-width:1.2;stroke-linecap:butt;stroke-linejoin:miter;stroke:rgb(0%,0%,0%);stroke-opacity:1;stroke-miterlimit:10;" d="M 184.082031 179.90625 L 184.675781 164.953125 "/>
<path style="fill:none;stroke-width:1.2;stroke-linecap:butt;stroke-linejoin:miter;stroke:rgb(0%,0%,100%);stroke-opacity:1;stroke-miterlimit:10;" d="M 184.675781 164.953125 L 185.269531 150 "/>
<path style="fill:none;stroke-width:1.2;stroke-linecap:butt;stroke-linejoin:miter;stroke:rgb(0%,0%,100%);stroke-opacity:1;stroke-miterlimit:10;" d="M 185.269531 150 L 172.617188 142.007812 "/>
<path style="fill:none;stroke-width:1.2;stroke-linecap:butt;stroke-linejoin:miter;stroke:rgb(0%,0%,0%);stroke-opacity:1;stroke-miterlimit:10;" d="M 172.617188 142.007812 L 159.964844 134.019531 "/>
<path style=" stroke:none;fill-rule:nonzero;fill:rgb(100%,100%,100%);fill-opacity:1;" d="M 176.269531 143 L 194.269531 143 L 194.269531 157 L 176.269531 157 Z M 176.269531 143 "/>
<g style="fill:rgb(0%,0%,100%);fill-opacity:1;">
  <use xlink:href="#glyph0-1" x="176.269531" y="154.138672"/>
  <use xlink:href="#glyph0-2" x="185.246094" y="154.138672"/>
</g>
<path style="fill:none;stroke-width:1.2;stroke-linecap:butt;stroke-linejoin:miter;stroke:rgb(0%,0%,0%);stroke-opacity:1;stroke-miterlimit:10;" d="M 159.964844 134.019531 L 133.472656 147.941406 "/>
<path style="fill:none;stroke-width:1.2;stroke-linecap:butt;stroke-linejoin:miter;stroke:rgb(0%,0%,0%);stroke-opacity:1;stroke-miterlimit:10;" d="M 154.039062 129.175781 L 132.847656 140.316406 "/>
<path style="fill:none;stroke-width:1.2;stroke-linecap:butt;stroke-linejoin:miter;stroke:rgb(0%,0%,0%);stroke-opacity:1;stroke-miterlimit:10;" d="M 161.152344 104.113281 L 159.964844 134.019531 "/>
<path style="fill:none;stroke-width:1.2;stroke-linecap:butt;stroke-linejoin:miter;stroke:rgb(0%,0%,0%);stroke-opacity:1;stroke-miterlimit:10;" d="M 133.472656 147.941406 L 126.09375 176.949219 "/>
<path style="fill:none;stroke-width:1.2;stroke-linecap:butt;stroke-linejoin:miter;stroke:rgb(0%,0%,0%);stroke-opacity:1;stroke-miterlimit:10;" d="M 108.167969 131.960938 L 133.472656 147.941406 "/>
<path style="fill:none;stroke-width:1.2;stroke-linecap:butt;stroke-linejoin:miter;stroke:rgb(0%,0%,0%);stroke-opacity:1;stroke-miterlimit:10;" d="M 126.09375 176.949219 L 111.160156 177.921875 "/>
<path style="fill:none;stroke-width:1.2;stroke-linecap:butt;stroke-linejoin:miter;stroke:rgb(0%,0%,100%);stroke-opacity:1;stroke-miterlimit:10;" d="M 111.160156 177.921875 L 96.226562 178.894531 "/>
<path style="fill:none;stroke-width:1.2;stroke-linecap:butt;stroke-linejoin:miter;stroke:rgb(0%,0%,0%);stroke-opacity:1;stroke-miterlimit:10;" d="M 122.648438 170.117188 L 110.703125 170.894531 "/>
<path style="fill:none;stroke-width:1.2;stroke-linecap:butt;stroke-linejoin:miter;stroke:rgb(0%,0%,100%);stroke-opacity:1;stroke-miterlimit:10;" d="M 110.703125 170.894531 L 98.757812 171.671875 "/>
<path style="fill:none;stroke-width:1.2;stroke-linecap:butt;stroke-linejoin:miter;stroke:rgb(0%,0%,100%);stroke-opacity:1;stroke-miterlimit:10;" d="M 96.226562 178.894531 L 85.148438 151.089844 "/>
<path style=" stroke:none;fill-rule:nonzero;fill:rgb(100%,100%,100%);fill-opacity:1;" d="M 92.226562 171.894531 L 101.226562 171.894531 L 101.226562 185.894531 L 92.226562 185.894531 Z M 92.226562 171.894531 "/>
<g style="fill:rgb(0%,0%,100%);fill-opacity:1;">
  <use xlink:href="#glyph0-1" x="92.226562" y="183.033203"/>
</g>
<path style="fill:none;stroke-width:1.2;stroke-linecap:butt;stroke-linejoin:miter;stroke:rgb(0%,0%,100%);stroke-opacity:1;stroke-miterlimit:10;" d="M 85.148438 151.089844 L 96.65625 141.527344 "/>
<path style="fill:none;stroke-width:1.2;stroke-linecap:butt;stroke-linejoin:miter;stroke:rgb(0%,0%,0%);stroke-opacity:1;stroke-miterlimit:10;" d="M 96.65625 141.527344 L 108.167969 131.960938 "/>
<path style="fill:none;stroke-width:1.2;stroke-linecap:butt;stroke-linejoin:miter;stroke:rgb(0%,0%,100%);stroke-opacity:1;stroke-miterlimit:10;" d="M 85.148438 151.089844 L 70.644531 147.402344 "/>
<path style="fill:none;stroke-width:1.2;stroke-linecap:butt;stroke-linejoin:miter;stroke:rgb(0%,0%,0%);stroke-opacity:1;stroke-miterlimit:10;" d="M 70.644531 147.402344 L 56.144531 143.710938 "/>
<path style=" stroke:none;fill-rule:nonzero;fill:rgb(100%,100%,100%);fill-opacity:1;" d="M 81.148438 144.089844 L 90.148438 144.089844 L 90.148438 158.089844 L 81.148438 158.089844 Z M 81.148438 144.089844 "/>
<g style="fill:rgb(0%,0%,100%);fill-opacity:1;">
  <use xlink:href="#glyph0-1" x="81.148438" y="155.228516"/>
</g>
<path style="fill:none;stroke-width:1.2;stroke-linecap:butt;stroke-linejoin:miter;stroke:rgb(0%,0%,0%);stroke-opacity:1;stroke-miterlimit:10;" d="M 108.167969 131.960938 L 108.761719 117.007812 "/>
<path style="fill:none;stroke-width:1.2;stroke-linecap:butt;stroke-linejoin:miter;stroke:rgb(0%,0%,100%);stroke-opacity:1;stroke-miterlimit:10;" d="M 108.761719 117.007812 L 109.355469 102.054688 "/>
<path style="fill:none;stroke-width:1.2;stroke-linecap:butt;stroke-linejoin:miter;stroke:rgb(0%,0%,0%);stroke-opacity:1;stroke-miterlimit:10;" d="M 115.324219 129.25 L 115.796875 117.289062 "/>
<path style="fill:none;stroke-width:1.2;stroke-linecap:butt;stroke-linejoin:miter;stroke:rgb(0%,0%,100%);stroke-opacity:1;stroke-miterlimit:10;" d="M 115.796875 117.289062 L 116.273438 105.324219 "/>
<path style="fill:none;stroke-width:1.2;stroke-linecap:butt;stroke-linejoin:miter;stroke:rgb(0%,0%,100%);stroke-opacity:1;stroke-miterlimit:10;" d="M 109.355469 102.054688 L 122.601562 95.09375 "/>
<path style="fill:none;stroke-width:1.2;stroke-linecap:butt;stroke-linejoin:miter;stroke:rgb(0%,0%,0%);stroke-opacity:1;stroke-miterlimit:10;" d="M 122.601562 95.09375 L 135.847656 88.132812 "/>
<path style=" stroke:none;fill-rule:nonzero;fill:rgb(100%,100%,100%);fill-opacity:1;" d="M 105.355469 95.054688 L 114.355469 95.054688 L 114.355469 109.054688 L 105.355469 109.054688 Z M 105.355469 95.054688 "/>
<g style="fill:rgb(0%,0%,100%);fill-opacity:1;">
  <use xlink:href="#glyph0-1" x="105.355469" y="106.193359"/>
</g>
<path style="fill:none;stroke-width:1.2;stroke-linecap:butt;stroke-linejoin:miter;stroke:rgb(0%,0%,0%);stroke-opacity:1;stroke-miterlimit:10;" d="M 135.847656 88.132812 L 161.152344 104.113281 "/>
<path style="fill:none;stroke-width:1.2;stroke-linecap:butt;stroke-linejoin:miter;stroke:rgb(0%,0%,0%);stroke-opacity:1;stroke-miterlimit:10;" d="M 134.617188 95.683594 L 154.863281 108.46875 "/>
<path style="fill:none;stroke-width:1.2;stroke-linecap:butt;stroke-linejoin:miter;stroke:rgb(0%,0%,0%);stroke-opacity:1;stroke-miterlimit:10;" d="M 135.847656 88.132812 L 137.035156 58.226562 "/>
<path style="fill:none;stroke-width:1.2;stroke-linecap:butt;stroke-linejoin:miter;stroke:rgb(0%,0%,0%);stroke-opacity:1;stroke-miterlimit:10;" d="M 161.152344 104.113281 L 187.644531 90.1875 "/>
<path style="fill:none;stroke-width:1.2;stroke-linecap:butt;stroke-linejoin:miter;stroke:rgb(0%,0%,0%);stroke-opacity:1;stroke-miterlimit:10;" d="M 191.164062 90.328125 L 191.757812 75.375 "/>
<path style="fill:none;stroke-width:1.2;stroke-linecap:butt;stroke-linejoin:miter;stroke:rgb(100%,0%,0%);stroke-opacity:1;stroke-miterlimit:10;" d="M 191.757812 75.375 L 192.351562 60.421875 "/>
<path style="fill:none;stroke-width:1.2;stroke-linecap:butt;stroke-linejoin:miter;stroke:rgb(0%,0%,0%);stroke-opacity:1;stroke-miterlimit:10;" d="M 184.128906 90.046875 L 184.722656 75.097656 "/>
<path style="fill:none;stroke-width:1.2;stroke-linecap:butt;stroke-linejoin:miter;stroke:rgb(100%,0%,0%);stroke-opacity:1;stroke-miterlimit:10;" d="M 184.722656 75.097656 L 185.316406 60.144531 "/>
<path style="fill:none;stroke-width:1.2;stroke-linecap:butt;stroke-linejoin:miter;stroke:rgb(0%,0%,0%);stroke-opacity:1;stroke-miterlimit:10;" d="M 187.644531 90.1875 L 200.300781 98.179688 "/>
<path style="fill:none;stroke-width:1.2;stroke-linecap:butt;stroke-linejoin:miter;stroke:rgb(100%,0%,0%);stroke-opacity:1;stroke-miterlimit:10;" d="M 200.300781 98.179688 L 212.953125 106.167969 "/>
<path style=" stroke:none;fill-rule:nonzero;fill:rgb(100%,100%,100%);fill-opacity:1;" d="M 183.832031 53.28125 L 193.832031 53.28125 L 193.832031 67.28125 L 183.832031 67.28125 Z M 183.832031 53.28125 "/>
<g style="fill:rgb(100%,0%,0%);fill-opacity:1;">
  <use xlink:href="#glyph0-3" x="183.832031" y="64.419922"/>
</g>
<path style="fill:none;stroke-width:1.2;stroke-linecap:butt;stroke-linejoin:miter;stroke:rgb(100%,0%,0%);stroke-opacity:1;stroke-miterlimit:10;" d="M 212.953125 106.167969 L 226.199219 99.207031 "/>
<path style="fill:none;stroke-width:1.2;stroke-linecap:butt;stroke-linejoin:miter;stroke:rgb(0%,0%,0%);stroke-opacity:1;stroke-miterlimit:10;" d="M 226.199219 99.207031 L 239.445312 92.246094 "/>
<path style=" stroke:none;fill-rule:nonzero;fill:rgb(100%,100%,100%);fill-opacity:1;" d="M 207.953125 99.167969 L 217.953125 99.167969 L 217.953125 113.167969 L 207.953125 113.167969 Z M 207.953125 99.167969 "/>
<g style="fill:rgb(100%,0%,0%);fill-opacity:1;">
  <use xlink:href="#glyph0-3" x="207.953125" y="110.306641"/>
</g>
<path style="fill:none;stroke-width:1.2;stroke-linecap:butt;stroke-linejoin:miter;stroke:rgb(0%,0%,0%);stroke-opacity:1;stroke-miterlimit:10;" d="M 239.445312 92.246094 L 264.75 108.226562 "/>
<path style="fill:none;stroke-width:1.2;stroke-linecap:butt;stroke-linejoin:miter;stroke:rgb(0%,0%,0%);stroke-opacity:1;stroke-miterlimit:10;" d="M 56.144531 143.710938 L 35.25 165.140625 "/>
</g>
</svg>

<svg xmlns="http://www.w3.org/2000/svg" xmlns:xlink="http://www.w3.org/1999/xlink" width="300pt" height="300pt" viewBox="0 0 300 300"><defs><symbol overflow="visible"><path d="M.594 2.125V-8.47h6V2.126zm.672-.672h4.671V-7.78h-4.67zm0 0"/></symbol><symbol overflow="visible" id="a"><path d="M1.172-8.75h1.594l3.89 7.313V-8.75h1.14V0H6.204L2.328-7.313V0H1.172zm0 0"/></symbol><symbol overflow="visible" id="b"><path d="M1.172-8.75H2.36v3.594h4.296V-8.75h1.188V0H6.656v-4.172H2.36V0H1.17zm0 0"/></symbol><symbol overflow="visible" id="c"><path d="M4.734-7.953c-.867 0-1.554.324-2.062.97-.5.635-.75 1.51-.75 2.624 0 1.094.25 1.965.75 2.61.508.637 1.195.953 2.062.953.852 0 1.532-.316 2.032-.953.507-.645.765-1.516.765-2.61 0-1.113-.257-1.988-.764-2.624-.5-.645-1.18-.97-2.032-.97zm0-.953c1.22 0 2.192.414 2.922 1.234.74.824 1.11 1.93 1.11 3.313 0 1.376-.37 2.477-1.11 3.298C6.926-.24 5.953.17 4.734.17c-1.23 0-2.214-.41-2.953-1.234C1.04-1.882.673-2.984.673-4.36c0-1.382.367-2.488 1.11-3.312.738-.82 1.722-1.234 2.952-1.234zm0 0"/></symbol></defs><g><path fill="#fff" d="M0 0h300v300H0z"/><path d="M233.508 241.773l-25.305-15.98M208.203 225.793l1.188-29.906M209.39 195.887l-25.308-15.98M184.082 179.906l.594-14.953" stroke-width="1.2" stroke="#000" stroke-miterlimit="10" fill="none"/><path d="M184.676 164.953L185.27 150M185.27 150l-12.653-7.992" stroke-width="1.2" stroke="#00f" stroke-miterlimit="10" fill="none"/><path d="M172.617 142.008l-12.652-7.988" stroke-width="1.2" stroke="#000" stroke-miterlimit="10" fill="none"/><path d="M176.27 143h18v14h-18zm0 0" fill="#fff"/><g fill="#00f"><use xlink:href="#a" x="176.27" y="154.139"/><use xlink:href="#b" x="185.246" y="154.139"/></g><path d="M159.965 134.02l-26.492 13.92M154.04 129.176l-21.192 11.14M161.152 104.113l-1.187 29.907M133.473 147.94l-7.38 29.01M108.168 131.96l25.305 15.98M126.094 176.95l-14.934.972" stroke-width="1.2" stroke="#000" stroke-miterlimit="10" fill="none"/><path d="M111.16 177.922l-14.933.973" stroke-width="1.2" stroke="#00f" stroke-miterlimit="10" fill="none"/><path d="M122.648 170.117l-11.945.778" stroke-width="1.2" stroke="#000" stroke-miterlimit="10" fill="none"/><path d="M110.703 170.895l-11.945.777M96.227 178.895l-11.08-27.805" stroke-width="1.2" stroke="#00f" stroke-miterlimit="10" fill="none"/><path d="M92.227 171.895h9v14h-9zm0 0" fill="#fff"/><use xlink:href="#a" x="92.227" y="183.033" fill="#00f"/><path d="M85.148 151.09l11.508-9.563" stroke-width="1.2" stroke="#00f" stroke-miterlimit="10" fill="none"/><path d="M96.656 141.527l11.512-9.566" stroke-width="1.2" stroke="#000" stroke-miterlimit="10" fill="none"/><path d="M85.148 151.09l-14.503-3.688" stroke-width="1.2" stroke="#00f" stroke-miterlimit="10" fill="none"/><path d="M70.645 147.402l-14.5-3.69" stroke-width="1.2" stroke="#000" stroke-miterlimit="10" fill="none"/><path d="M81.148 144.09h9v14h-9zm0 0" fill="#fff"/><use xlink:href="#a" x="81.148" y="155.229" fill="#00f"/><path d="M108.168 131.96l.594-14.952" stroke-width="1.2" stroke="#000" stroke-miterlimit="10" fill="none"/><path d="M108.762 117.008l.593-14.953" stroke-width="1.2" stroke="#00f" stroke-miterlimit="10" fill="none"/><path d="M115.324 129.25l.473-11.96" stroke-width="1.2" stroke="#000" stroke-miterlimit="10" fill="none"/><path d="M115.797 117.29l.476-11.966M109.355 102.055l13.247-6.96" stroke-width="1.2" stroke="#00f" stroke-miterlimit="10" fill="none"/><path d="M122.602 95.094l13.246-6.96" stroke-width="1.2" stroke="#000" stroke-miterlimit="10" fill="none"/><path d="M105.355 95.055h9v14h-9zm0 0" fill="#fff"/><use xlink:href="#a" x="105.355" y="106.193" fill="#00f"/><path d="M135.848 88.133l25.304 15.98M134.617 95.684l20.246 12.785M135.848 88.133l1.187-29.906M161.152 104.113l26.493-13.925M191.164 90.328l.594-14.953" stroke-width="1.2" stroke="#000" stroke-miterlimit="10" fill="none"/><path d="M191.758 75.375l.594-14.953" stroke-width="1.2" stroke="#f00" stroke-miterlimit="10" fill="none"/><path d="M184.13 90.047l.593-14.95" stroke-width="1.2" stroke="#000" stroke-miterlimit="10" fill="none"/><path d="M184.723 75.098l.593-14.953" stroke-width="1.2" stroke="#f00" stroke-miterlimit="10" fill="none"/><path d="M187.645 90.188L200.3 98.18" stroke-width="1.2" stroke="#000" stroke-miterlimit="10" fill="none"/><path d="M200.3 98.18l12.653 7.988" stroke-width="1.2" stroke="#f00" stroke-miterlimit="10" fill="none"/><path d="M183.832 53.28h10v14h-10zm0 0" fill="#fff"/><use xlink:href="#c" x="183.832" y="64.42" fill="#f00"/><path d="M212.953 106.168l13.246-6.96" stroke-width="1.2" stroke="#f00" stroke-miterlimit="10" fill="none"/><path d="M226.2 99.207l13.245-6.96" stroke-width="1.2" stroke="#000" stroke-miterlimit="10" fill="none"/><path d="M207.953 99.168h10v14h-10zm0 0" fill="#fff"/><use xlink:href="#c" x="207.953" y="110.307" fill="#f00"/><path d="M239.445 92.246l25.305 15.98M56.145 143.71L35.25 165.14" stroke-width="1.2" stroke="#000" stroke-miterlimit="10" fill="none"/></g></svg>
